public/avatar/hat/27.svg

<svg xmlns:xlink="http://www.w3.org/1999/xlink" height="92.9" width="100.7" xmlns="http://www.w3.org/2000/svg"><use height="33.3" transform="translate(22.5 43.5)" width="32" xlink:href="#a"/><defs><g id="a" fill-rule="evenodd"><path d="M6 6.1q.85-2.85.7-5.9-.15-2-.7-4Q7.65-2.3 9.2.1l.55.85q2.55 4.2 4.2 8.8 1.75 5.05 1.9 10.65l-1.15.9q-5.3 4.1-11.75 5.3-5 1.15-9.95-.7-5.2-2.1-9.15-6.4l1.6-8.95q.65-3.3 3.55-8.75l.2-.4q2.45-4.55 4.25-5.55L-6.6.25q.25 2.65 1.2 5-6.1 1.95-6.6 8.55l-.05 1.8q1.7 2.25 4.85 2.95-.05 3.5 2.1 5.45l.05.05.9.6.35.15q2.5 1.4 4.65 1.1 2.85-.4 4.95-2.8l.15-.15q1.35-1.8.85-4.75 3.55-.65 5.35-3.1l-.2-2.35Q11.25 8.55 6 6.1" fill="#390" transform="translate(16.15 6.25)"/><path d="M3.5 5.1q.8-2.7.9-5.25.15-2.6-.4-5.1L6-3.8q.55 2 .7 4 .15 3.05-.7 5.9l-1.3-.4q-.85-.25-1.2-.6M-4.55-5.4l.3 5.25.8 5.2-1.95.2q-.95-2.35-1.2-5l.05-4.4 2-1.25" fill="#fff" transform="translate(16.15 6.25)"/><path d="M4-5.25q.55 2.5.4 5.1-.1 2.55-.9 5.25-2.15-.05-3.85 6.6-1.05-6.65-3.1-6.65l-.8-5.2-.3-5.25Q.3-6.85 2.9-5.8l1.1.55" fill="#2e7801" transform="translate(16.15 6.25)"/></g></defs></svg>

<?xml version="1.0" encoding="UTF-8" standalone="no"?>
<svg xmlns:xlink="http://www.w3.org/1999/xlink" height="92.9px" width="100.7px" xmlns="http://www.w3.org/2000/svg">
  <g transform="matrix(1.0, 0.0, 0.0, 1.0, 38.65, 49.75)">
    <use height="33.3" transform="matrix(1.0, 0.0, 0.0, 1.0, -16.15, -6.25)" width="32.0" xlink:href="#shape0"/>
  </g>
  <defs>
    <g id="shape0" transform="matrix(1.0, 0.0, 0.0, 1.0, 16.15, 6.25)">
      <path d="M6.0 6.1 Q6.85 3.25 6.7 0.2 6.55 -1.8 6.0 -3.8 7.65 -2.3 9.2 0.1 L9.75 0.95 Q12.3 5.15 13.95 9.75 15.7 14.8 15.85 20.4 L14.7 21.3 Q9.4 25.4 2.95 26.6 -2.05 27.75 -7.0 25.9 -12.2 23.8 -16.15 19.5 L-14.55 10.55 Q-13.9 7.25 -11.0 1.8 L-10.8 1.4 Q-8.35 -3.15 -6.55 -4.15 L-6.6 0.25 Q-6.35 2.9 -5.4 5.25 -11.5 7.2 -12.0 13.8 L-12.05 15.6 Q-10.35 17.85 -7.2 18.55 -7.25 22.05 -5.1 24.0 L-5.05 24.05 -4.15 24.65 -3.8 24.8 Q-1.3 26.2 0.85 25.9 3.7 25.5 5.8 23.1 L5.95 22.95 Q7.3 21.15 6.8 18.2 10.35 17.55 12.15 15.1 L11.95 12.75 Q11.25 8.55 6.0 6.1" fill="#339900" fill-rule="evenodd" stroke="none"/>
      <path d="M3.5 5.1 Q4.3 2.4 4.4 -0.15 4.55 -2.75 4.0 -5.25 L6.0 -3.8 Q6.55 -1.8 6.7 0.2 6.85 3.25 6.0 6.1 L4.7 5.7 Q3.85 5.45 3.5 5.1 M-4.55 -5.4 L-4.25 -0.15 -3.45 5.05 -5.4 5.25 Q-6.35 2.9 -6.6 0.25 L-6.55 -4.15 -4.55 -5.4" fill="#ffffff" fill-rule="evenodd" stroke="none"/>
      <path d="M4.0 -5.25 Q4.55 -2.75 4.4 -0.15 4.3 2.4 3.5 5.1 1.35 5.05 -0.35 11.7 -1.4 5.05 -3.45 5.05 L-4.25 -0.15 -4.55 -5.4 Q0.3 -6.85 2.9 -5.8 L4.0 -5.25" fill="#2e7801" fill-rule="evenodd" stroke="none"/>
    </g>
  </defs>
</svg>
